X:76
T: ZUR SCHMIEDE GING EIN JUNGER HELD
N: B0104
O: Europa, Mitteleuropa, Deutschland
R: Helden -, Ehren -, Gedaechtnis -, Kriegs - Lied
M: 4/4
L: 1/8
K: Bb
F2 | B2B2B2c2 | d2cAB3
F | c2c2c2d2 | e2dBc2
F2 | d2cBA2G2 | F2E2D3
F | G2G2e2dc | B2A2B2

